images/slider2/cl-1.svg

<svg width="214" height="213" viewBox="0 0 214 213" fill="none" xmlns="http://www.w3.org/2000/svg">
<path fill-rule="evenodd" clip-rule="evenodd" d="M13.2904 124.524H21.3769L23.5041 119.629L31.8028 119.842L34.1422 124.735H42.2299L27.7607 84.5178L13.2904 124.524ZM25.6335 112.183C25.6335 112.183 27.3374 104.733 27.5463 105.373C27.7596 106.011 29.4624 111.967 29.4624 111.967L25.6335 112.183ZM47.3384 110.693C47.3384 100.264 58.8306 105.374 58.8306 105.374L63.5115 100.052C59.4682 96.22 53.2967 96.4355 53.2967 96.4355C50.1054 96.4355 40.9547 97.4985 39.6772 111.543C44.7869 133.888 63.7248 121.973 63.7248 121.973L59.0428 116.653C59.0428 116.651 47.3384 121.118 47.3384 110.693Z" fill="#153053" fill-opacity="0.6"/>
<path fill-rule="evenodd" clip-rule="evenodd" d="M146.931 94.3072L143.525 87.4959H106.073L98.4126 107.714L89.6873 87.2837H51.596L47.5527 94.3072H64.7878V124.524H72.8744V94.3072H83.9401L98.1993 130.481L112.244 94.3072H146.931Z" fill="#153053" fill-opacity="0.6"/>
<path fill-rule="evenodd" clip-rule="evenodd" d="M76.8326 124.736H84.1534V96.8589H76.9188L76.8326 124.736ZM112.157 124.736H119.48V96.8589H112.244L112.157 124.736ZM138.122 124.736H145.442V96.8589H138.208L138.122 124.736ZM130.969 102.817H135.652L135.865 97.0721L127.566 96.8578C127.566 96.8578 121.821 96.8578 121.821 102.178C121.821 107.499 128.628 114.947 128.628 114.947C128.628 114.947 130.331 116.437 129.48 117.712C128.628 118.991 121.605 118.142 121.605 118.142V124.523H131.82C131.82 124.523 137.354 125.162 137.354 119.204C137.354 113.245 129.691 105.373 129.691 105.373C128.526 104.117 129.145 102.817 130.969 102.817ZM161.613 96.008C161.613 96.008 146.292 95.5826 146.718 110.906C147.143 126.227 160.338 125.588 161.613 125.588C162.891 125.588 175.659 124.311 175.446 110.055C175.235 95.797 161.613 96.008 161.613 96.008ZM161.825 117.929C161.825 117.929 154.38 118.994 154.38 110.693C154.38 102.394 161.402 103.458 161.402 103.458C161.402 103.458 167.573 103.882 167.784 109.417C168.637 117.502 161.825 117.929 161.825 117.929ZM190.342 96.8589L189.703 106.224L176.723 96.008L176.936 124.524H184.597V113.885L197.153 124.524V96.8589H190.342ZM206.971 118.969C207.539 119.28 208.009 119.741 208.329 120.303C208.655 120.857 208.829 121.488 208.833 122.13C208.837 122.773 208.671 123.406 208.352 123.964C208.035 124.536 207.589 124.987 207.014 125.32C206.44 125.652 205.827 125.816 205.175 125.816C204.537 125.814 203.91 125.645 203.357 125.326C202.796 125.016 202.331 124.558 202.014 124.002C201.686 123.444 201.515 122.809 201.518 122.163C201.518 121.526 201.679 120.913 202.01 120.326C202.321 119.767 202.781 119.304 203.339 118.99C203.897 118.668 204.531 118.499 205.175 118.501C205.804 118.503 206.421 118.665 206.971 118.969ZM203.017 118.331C202.333 118.701 201.767 119.258 201.385 119.936C200.989 120.611 200.782 121.379 200.783 122.162C200.783 122.918 200.975 123.645 201.363 124.344C201.741 125.021 202.276 125.56 202.969 125.959C203.639 126.347 204.4 126.551 205.174 126.548C205.935 126.548 206.664 126.353 207.362 125.965C208.035 125.593 208.592 125.041 208.968 124.371C209.357 123.7 209.561 122.938 209.559 122.163C209.559 121.399 209.362 120.661 208.972 119.957C208.597 119.288 208.044 118.736 207.376 118.36C206.707 117.971 205.948 117.767 205.174 117.769C204.437 117.767 203.719 117.957 203.017 118.331ZM204.03 124.578V122.569H204.474C204.737 122.569 204.938 122.624 205.083 122.731C205.288 122.889 205.551 123.256 205.875 123.834L206.294 124.578H207.22L206.644 123.652C206.372 123.218 206.139 122.908 205.945 122.718C205.828 122.608 205.692 122.522 205.543 122.464C205.921 122.437 206.238 122.309 206.49 122.07C206.713 121.867 206.854 121.589 206.886 121.289C206.919 120.99 206.841 120.689 206.667 120.442C206.49 120.184 206.221 120.01 205.862 119.924C205.653 119.879 205.325 119.856 204.875 119.856H203.256V124.577H204.03V124.578ZM204.03 120.509H204.886C205.253 120.509 205.506 120.536 205.646 120.59C205.934 120.705 206.078 120.91 206.078 121.206C206.078 121.681 205.7 121.919 204.943 121.919H204.031V120.509H204.03Z" fill="#153053" fill-opacity="0.6"/>
</svg>

<svg width="214" height="213" fill="none" xmlns="http://www.w3.org/2000/svg"><path fill-rule="evenodd" clip-rule="evenodd" d="M13.29 124.524h8.087l2.127-4.895 8.299.213 2.34 4.893h8.087L27.76 84.518l-14.47 40.006zm12.344-12.341s1.703-7.45 1.912-6.81c.214.638 1.916 6.594 1.916 6.594l-3.828.216zm21.704-1.49c0-10.429 11.493-5.319 11.493-5.319l4.68-5.322c-4.043-3.832-10.214-3.617-10.214-3.617-3.192 0-12.342 1.064-13.62 15.108 5.11 22.345 24.048 10.43 24.048 10.43l-4.682-5.32c0-.002-11.705 4.465-11.705-5.96z" fill="#153053" fill-opacity=".6"/><path fill-rule="evenodd" clip-rule="evenodd" d="M146.931 94.307l-3.406-6.811h-37.452l-7.66 20.218-8.726-20.43H51.596l-4.043 7.023h17.235v30.217h8.086V94.307H83.94l14.26 36.174 14.044-36.174h34.687z" fill="#153053" fill-opacity=".6"/><path fill-rule="evenodd" clip-rule="evenodd" d="M76.833 124.736h7.32V96.859H76.92l-.086 27.877zm35.324 0h7.323V96.859h-7.236l-.087 27.877zm25.965 0h7.32V96.859h-7.234l-.086 27.877zm-7.153-21.919h4.683l.213-5.745-8.299-.214s-5.745 0-5.745 5.32c0 5.321 6.807 12.769 6.807 12.769s1.703 1.49.852 2.765c-.852 1.279-7.875.43-7.875.43v6.381h10.215s5.534.639 5.534-5.319c0-5.959-7.663-13.831-7.663-13.831-1.165-1.256-.546-2.556 1.278-2.556zm30.644-6.809s-15.321-.425-14.895 14.898c.425 15.321 13.62 14.682 14.895 14.682 1.278 0 14.046-1.277 13.833-15.533-.211-14.258-13.833-14.047-13.833-14.047zm.212 21.921s-7.445 1.065-7.445-7.236c0-8.299 7.022-7.235 7.022-7.235s6.171.424 6.382 5.959c.853 8.085-5.959 8.512-5.959 8.512zm28.517-21.07l-.639 9.365-12.98-10.216.213 28.516h7.661v-10.639l12.556 10.639V96.859h-6.811zm16.629 22.11a3.49 3.49 0 0 1 1.358 1.334 3.65 3.65 0 0 1 .023 3.661 3.507 3.507 0 0 1-1.338 1.356 3.612 3.612 0 0 1-1.839.496 3.662 3.662 0 0 1-1.818-.49 3.487 3.487 0 0 1-1.343-1.324 3.595 3.595 0 0 1-.496-1.839c0-.637.161-1.25.492-1.837a3.468 3.468 0 0 1 1.329-1.336 3.653 3.653 0 0 1 1.836-.489 3.737 3.737 0 0 1 1.796.468zm-3.954-.638a4.13 4.13 0 0 0-1.632 1.605 4.385 4.385 0 0 0-.602 2.226c0 .756.192 1.483.58 2.182a4.201 4.201 0 0 0 1.606 1.615c.67.388 1.431.592 2.205.589.761 0 1.49-.195 2.188-.583a4.135 4.135 0 0 0 1.606-1.594 4.38 4.38 0 0 0 .591-2.208 4.5 4.5 0 0 0-.587-2.206 4.178 4.178 0 0 0-1.596-1.597 4.356 4.356 0 0 0-2.202-.591c-.737-.002-1.455.188-2.157.562zm1.013 6.247v-2.009h.444c.263 0 .464.055.609.162.205.158.468.525.792 1.103l.419.744h.926l-.576-.926c-.272-.434-.505-.744-.699-.934a1.246 1.246 0 0 0-.402-.254c.378-.027.695-.155.947-.394a1.235 1.235 0 0 0 .177-1.628c-.177-.258-.446-.432-.805-.518-.209-.045-.537-.068-.987-.068h-1.619v4.721h.774v.001zm0-4.069h.856c.367 0 .62.027.76.081.288.115.432.32.432.616 0 .475-.378.713-1.135.713h-.912v-1.41h-.001z" fill="#153053" fill-opacity=".6"/></svg>
